svgs/duotone/grate-droplet.svg

<svg xmlns="http://www.w3.org/2000/svg" viewBox="0 0 576 512"><!-- Font Awesome Pro 6.0.0-alpha2 by @fontawesome - https://fontawesome.com License - https://fontawesome.com/license (Commercial License) --><defs><style>.fa-secondary{opacity:.4}</style></defs><path d="M384 32H64C28.654 32 0 60.652 0 96V416C0 451.346 28.654 480 64 480H344.217C328.967 457.262 320 430.004 320 400.672C320 362.945 334.801 334.967 352 309.361V288H366.824C384.611 262.926 402.699 236.561 414.773 196.576C419.771 180.035 432.318 167.656 448 162.574V96C448 60.652 419.346 32 384 32ZM96 416H64V288H96V416ZM96 224H64V96H96V224ZM192 416H160V288H192V416ZM192 224H160V96H192V224ZM288 416H256V288H288V416ZM288 224H256V96H288V224ZM384 224H352V96H384V224Z" class="fa-secondary"/><path d="M482.594 205.83C477.562 187.783 451.094 187.002 445.406 205.83C415.656 304.344 352 331.219 352 400.672C352 462.156 402.094 512 464 512S576 462.156 576 400.672C576 330.828 512.49 304.891 482.594 205.83Z" class="fa-primary"/></svg>

<svg xmlns="http://www.w3.org/2000/svg" viewBox="0 0 576 512"><!--! Font Awesome Pro 6.3.0 by @fontawesome - https://fontawesome.com License - https://fontawesome.com/license (Commercial License) Copyright 2023 Fonticons, Inc. --><defs><style>.fa-secondary{opacity:.4}</style></defs><path class="fa-primary" d="M482.6 205.8c-5.031-18.05-31.5-18.83-37.19 0C415.7 304.3 352 331.2 352 400.7C352 462.2 402.1 512 464 512s112-49.84 112-111.3C576 330.8 512.5 304.9 482.6 205.8z"/><path class="fa-secondary" d="M384 32H64C28.65 32 0 60.65 0 96v320c0 35.35 28.65 64 64 64h280.2C328.1 457.3 320 430 320 400.7c0-37.73 14.8-65.7 32-91.31V288h14.82c17.79-25.07 35.88-51.44 47.95-91.42C419.8 180 432.3 167.7 448 162.6V96C448 60.65 419.3 32 384 32zM96 416H64V288h32V416zM96 224H64V96h32V224zM192 416H160V288h32V416zM192 224H160V96h32V224zM288 416H256V288h32V416zM288 224H256V96h32V224zM384 224h-32V96h32V224z"/></svg>
